packages/kaspersky-hexa-ui-icons/src/iconsSVGs/32/ShieldCracked1.svg

<svg width="32" height="32" viewBox="0 0 32 32" fill="none" xmlns="http://www.w3.org/2000/svg">
<path fill-rule="evenodd" clip-rule="evenodd" d="M15.0645 2.23955C15.6494 1.93024 16.3506 1.93024 16.9355 2.23955L26.4678 7.28154L26.584 7.35381C26.8428 7.53993 26.9998 7.84112 27 8.16533V13.9856C27 15.8517 26.8989 17.8489 26.2793 19.7552L26.1475 20.1351C24.6805 24.1567 22.2299 26.6154 20.1348 28.0647C19.0903 28.7872 18.1349 29.2586 17.4346 29.5511C17.0843 29.6973 16.7967 29.7998 16.5918 29.8665C16.4895 29.8998 16.4074 29.9239 16.3486 29.9407C16.3193 29.9491 16.2949 29.9555 16.2773 29.9603C16.2687 29.9626 16.2615 29.9647 16.2559 29.9661C16.2533 29.9668 16.251 29.9676 16.249 29.9681L16.2461 29.969L16 28.9993L16.2432 29.969C16.093 30.0067 15.9363 30.0091 15.7852 29.9759L16 28.9993L15.7832 29.9759L15.7793 29.9749C15.7772 29.9744 15.7743 29.9736 15.7715 29.9729C15.7657 29.9716 15.7578 29.9702 15.749 29.9681C15.7312 29.9638 15.7072 29.9581 15.6777 29.9505C15.6178 29.9351 15.5338 29.9121 15.4297 29.8812C15.2214 29.8192 14.9294 29.723 14.5742 29.5833C13.8643 29.304 12.8966 28.8472 11.8408 28.1302C9.72099 26.6904 7.25746 24.2095 5.80469 20.0618C5.11185 18.0835 5 16.0001 5 14.055V8.16533L5.00977 8.02861C5.05345 7.71297 5.24573 7.43316 5.53223 7.28154L15.0645 2.23955ZM7 8.76689V14.055C7 15.9507 7.11567 17.754 7.69238 19.4007C8.98328 23.0861 11.145 25.2399 12.9648 26.4759C13.8788 27.0966 14.7107 27.4875 15.3066 27.722C15.595 27.8354 15.8272 27.9118 15.9854 27.9593C16.1432 27.9075 16.3756 27.8259 16.6641 27.7054C17.2577 27.4574 18.0857 27.0497 18.9971 26.4192C20.814 25.1623 22.9673 23.017 24.2686 19.4495L24.3779 19.1331C24.8944 17.543 25 15.8064 25 13.9856V8.76689L19.6836 5.95439L17.21 11.6302L21.6562 15.4974C21.9816 15.7805 22.0886 16.2402 21.9219 16.638L19.9307 21.387C19.717 21.896 19.1312 22.1356 18.6221 21.9222C18.113 21.7086 17.8736 21.1228 18.0869 20.6136L19.7979 16.5315L15.3438 12.6575C15.0144 12.371 14.9087 11.9034 15.083 11.5032L17.9102 5.01689L16 4.00713L7 8.76689Z" fill="black"/>
</svg>

<svg xmlns="http://www.w3.org/2000/svg" width="32" height="32" fill="none" viewBox="0 0 32 32"><path fill="#000" fill-rule="evenodd" d="M15.0645 2.2396a2.002 2.002 0 0 1 1.871 0l9.5323 5.042.1162.0722c.2588.1861.4158.4873.416.8115v5.8203c0 1.8661-.1011 3.8633-.7207 5.7696l-.1318.3799c-1.467 4.0216-3.9176 6.4803-6.0127 7.9296-1.0445.7225-1.9999 1.1939-2.7002 1.4864-.3503.1462-.6379.2487-.8428.3154a7 7 0 0 1-.2432.0742c-.0293.0084-.0537.0148-.0713.0196l-.0214.0058-.0069.002-.0029.0009L16 28.9993l.2432.9697a1 1 0 0 1-.458.0069L16 28.9993l-.2168.9766-.0039-.001-.0078-.002c-.0058-.0013-.0137-.0027-.0225-.0048q-.0269-.0063-.0713-.0176a7 7 0 0 1-.248-.0693c-.2083-.062-.5003-.1582-.8555-.2979-.7099-.2793-1.6776-.7361-2.7334-1.4531-2.1198-1.4398-4.5833-3.9207-6.0361-8.0684C5.1118 18.0835 5 16.0001 5 14.055V8.1653l.0098-.1367a1 1 0 0 1 .5224-.747zM7 8.7669v5.2881c0 1.8957.1157 3.699.6924 5.3457 1.2909 3.6854 3.4526 5.8392 5.2724 7.0752.914.6207 1.7459 1.0116 2.3418 1.2461.2884.1134.5206.1898.6788.2373a9.2 9.2 0 0 0 .6787-.2539c.5936-.248 1.4216-.6557 2.333-1.2862 1.8169-1.2569 3.9702-3.4022 5.2715-6.9697l.1093-.3164c.5165-1.5901.6221-3.3267.6221-5.1475V8.7669l-5.3164-2.8125-2.4736 5.6758 4.4462 3.8672a.9995.9995 0 0 1 .2657 1.1406l-1.9912 4.749c-.2137.509-.7995.7486-1.3086.5352-.5091-.2136-.7485-.7994-.5352-1.3086l1.711-4.0821-4.4541-3.874a1.001 1.001 0 0 1-.2608-1.1543l2.8272-6.4863L16 4.007z" clip-rule="evenodd"/></svg>
